X:1
T:All'hor che di bei
T:Ruggiero Giovanelli
T:Source : Canzonette a la Romana a tre voci--Antwer---P.Phalesius Jr---1607. Editor: André Vierendeels (01/02/17).
T:Notes : Original clefs : G2 , G2 C3
T:All'hor che di bei
T:©
T:©
T:©
T:©
C:Ruggiero Giovanelli
Z:©
%%score [ 1 2 3 ]
L:1/8
Q:1/4=120
M:4/4
K:C
V:1 treble nm="Soprano 1" snm="S 1"
V:2 treble nm="Soprano 2" snm="S 2"
V:3 treble-8 nm="Tenor" snm="T"
V:1
 G4 d4 | z2 g2 f2 f2 | edec d2 dd | cBcA B4 | G2 G2 AGAB | c4 A3 B | c4 z2 g2 | edec d2 d2 | %8
w: All' hor|di bei fio-|* * * * * ri, di|va- ghi co- lor mi-|sti, di va- ghi col- or|mi- * *|sti di|va- ghi co- lor mi- sti'a-|
 e3 d c3 B | A2 G4 ^F2 | G8 :: z2 g3 f ed | edcd e2 dc | B2 B2 c2 d2 | e2 d2 c2 BA | G2 A2 Bcde | %16
w: dor- * * *|na'il man- *|to,|Flo- * * *|* * * * * ra gen-|til il spie- ga|suoi no- vi'ar- do- *||
 f2 ed cd e2- | e2 d4 ^c2 | d4 f4 | f4 e4- | e2 e2 e4 | fede fg a2- | a2 gf e4 | d4 z2 d2 | %24
w: ||ri, in|dol- cis-|* si- mo|Can- * * * * * *||to, o-|
 c2 B2 A2 G2 | z2 g2 f2 e2 | d2 cg f2 e2 | d2 dG AABB | c2 d2 z2 d2 | eeff g2 g2 | z2 d2 edcB | %31
w: gn'an- gel- let- to,|o- gn'an- gel-|let- to, o- gn'an- gel-|let- to in mill' e mil- le|cho- ri, in|mill' e mil- le cho- ri,|in mill' e mil- le|
 A2 G4 ^F2 | G8 :| %33
w: cho- * *|ri.|
V:2
 z8 | G4 d4 | z2 g2 f2 f2 | edec d2 dd | BABc d4 | e2 g2 f2 f2 | edec d2 dd | cBcA B2 B2 | %8
w: |All' hor|che di bei|fio- * * * * ri, di|va- ghi co- lor mi-|sti, che di bei|fio- * * * * ri, di|va- ghi co- lor mi- sti'a-|
 c3 B A2 G2 | ^F2 G2 A4 | B8 :: z2 e3 d cB | cded c2 BA | ^G4 z2 B2 | c2 d2 e2 f2 | g2 fe d4- | %16
w: dor- * * na'l|man- * *|to,|Flo- * * *|* * * * * ra gen-|til spie-|ga suoi no- vi'ar-|do- * * *|
 d2 cB A2 B2 | c2 d2 e4 | d4 d4 | d4 ^c4- | c2 ^c2 c4 | defg a3 g | f2 ed ^c4 | d8 | z2 d2 c2 B2 | %25
w: ||ri, in|dol- cis-|* si- mo|Can- * * * * *||to,|o- gn'an- gel-|
 A2 G2 z2 g2 | f2 e2 d2 dG | AABB c2 d2 | z2 d2 eeff | g2 d2 z2 G2 | AABB cBAG | F2 G2 A4 | G8 :| %33
w: let- to, o-|gn'an- gel- let- to, in|mill' e mil- le cho- ri,|in mill' e mil- le|cho- ri, in|mill' e mil- le cho- * * *||ri,|
V:3
 z8 | z8 | z8 | c4 g4 | z2 g2 f2 f2 | edec d2 dd | cBcA B4 | c4 g3 f | ed c4 c2 | d8 | G8 :: %11
w: |||All' hor|di bei fio-|* * * * * ri, di|va- ghi co- lor mi-|sti a- dor-|* * * na'il|man-|to,|
 c4 c4 | c4 c2 d2 | e4 z4 | z2 B2 c2 d2 | e2 f2 g2 fe | d2 e2 f2 g2 | a8 | d4 d4 | d4 A4- | %20
w: Flo- ra,|Flo- ra gen-|til|spie- ga suoi|no- vi'ar- do- * *|||ri, in|dol- cis-|
 A2 A2 A4 | d6 cB | A8 | d8 | z4 z2 g2 | f2 e2 d2 c2 | z2 c2 ddee | f2 g2 z2 G2 | AABB c2 dd | %29
w: * si- mo|Can- * *||to,|ohn'|an- gel- let- to|in mill' e mil- le|cho- ri, in|mill' e mil- le cho- ri, in|
 ccdd e4 | d4 c4 | d8 | G8 :| %33
w: mill' e mil- le cho-|||ri.|

